flags/us-in.svg

<svg xmlns="http://www.w3.org/2000/svg" width="512" height="512" fill="none"><g clip-path="url(#a)"><path fill="var(--flag-palette-blue, #0052b4)" d="M0 0h512v512H0z"/><path fill="var(--flag-palette-dark-yellow, #ffc635)" d="M224 361h64l-52 37.5 20-61 20 61zm-79.2-32.8h64l-52 37.5 20-61 20 61zM112 249h64l-52 37.5 20-61 20 61zm144 145-12 8.6V451l12 21 12-21v-48.4zm6.7-207.7c-14.3 5.2-18.9 17.4-17.5 30.5q-5-4.6-6.3-11.5a26 26 0 0 0-6 15.9 28 28 0 0 0 8.3 19.8H216v16h16l12 31h-12v16h12v44.4l12-36.6 12 36.6V304h12v-16h-12l12-31h16v-16h-23.3c7.6-8.5 8.6-23.3 1.9-34-.3 6.4-3.5 11.2-5.6 14.8-.9-11.8-11.2-18.8-6.3-35.5M224 63.5h64L236 101l20-61 20 61zm92.1 29.9h64l-52 37.5 20-61 20 61zm63.5 63.5h64l-52 37.5 20-61 20 61zm29.9 92.1h64l-52 37.5 20-61 20 61zm-29.9 92.1h64l-52 37.5 20-61 20 61zm-63.5 63.5h64l-52 37.5 20-61 20 61zm-184.2 0h64l-52 37.5 20-61 20 61zm-63.5-63.5h64l-52 37.5 20-61 20 61zM38.5 249h64l-52 37.5 20-61 20 61zm29.9-92.1h64l-52 37.5 20-61 20 61zm63.5-63.5h64l-52 37.5 20-61 20 61zM224 137h64l-52 37.5 20-61 20 61zm112 112h64l-52 37.5 20-61 20 61zm-32.8 79.2h64l-52 37.5 20-61 20 61z"/></g><defs><clipPath id="a"><path fill="#fff" d="M0 0h512v512H0z"/></clipPath></defs></svg>

<svg width="512" height="512" viewBox="0 0 512 512" fill="none" xmlns="http://www.w3.org/2000/svg">
<rect width="512" height="512" fill="var(--flag-palette-blue, #0052b4)"/>
<path d="M224 361H288L236 398.5L256 337.5L276 398.5L224 361ZM144.8 328.2H208.8L156.8 365.7L176.8 304.7L196.8 365.7L144.8 328.2ZM112 249H176L124 286.5L144 225.5L164 286.5L112 249ZM256 394L244 402.6V451L256 472L268 451V402.6L256 394ZM262.7 186.3C248.4 191.5 243.8 203.7 245.2 216.8C241.909 213.751 239.698 209.715 238.9 205.3C235.175 209.778 233.063 215.378 232.9 221.2C232.902 224.886 233.637 228.534 235.062 231.934C236.486 235.333 238.573 238.415 241.2 241H216V257H232L244 288H232V304H244V348.4L256 311.8L268 348.4V304H280V288H268L280 257H296V241H272.7C280.3 232.5 281.3 217.7 274.6 207C274.3 213.4 271.1 218.2 269 221.8C268.1 210 257.8 203 262.7 186.3ZM224 63.5H288L236 101L256 40L276 101L224 63.5ZM316.1 93.4H380.1L328.1 130.9L348.1 69.9L368.1 130.9L316.1 93.4ZM379.6 156.9H443.6L391.6 194.4L411.6 133.4L431.6 194.4L379.6 156.9ZM409.5 249H473.5L421.5 286.5L441.5 225.5L461.5 286.5L409.5 249ZM379.6 341.1H443.6L391.6 378.6L411.6 317.6L431.6 378.6L379.6 341.1ZM316.1 404.6H380.1L328.1 442.1L348.1 381.1L368.1 442.1L316.1 404.6ZM131.9 404.6H195.9L143.9 442.1L163.9 381.1L183.9 442.1L131.9 404.6ZM68.4 341.1H132.4L80.4 378.6L100.4 317.6L120.4 378.6L68.4 341.1ZM38.5 249H102.5L50.5 286.5L70.5 225.5L90.5 286.5L38.5 249ZM68.4 156.9H132.4L80.4 194.4L100.4 133.4L120.4 194.4L68.4 156.9ZM131.9 93.4H195.9L143.9 130.9L163.9 69.9L183.9 130.9L131.9 93.4ZM224 137H288L236 174.5L256 113.5L276 174.5L224 137ZM336 249H400L348 286.5L368 225.5L388 286.5L336 249ZM303.2 328.2H367.2L315.2 365.7L335.2 304.7L355.2 365.7L303.2 328.2Z" fill="var(--flag-palette-dark-yellow, #ffc635)"/>
</svg>
